X:413
%%etbk:tnset id:121,pos:3,rep:3x,ant:
%%etbk:pldat 2015-07-11T16:35,2014-06-15T12:57,2014-04-27T13:07,2014-02-06T18:46,2013-05-01T17:56
T:Gan Ainm
Z: Piano Box Version by Martin Fleischmann
H: Created 2013-02-19 /  Last Modified 2013-02-19
M: 2/4
L: 1/8
R: polka
K: Gmaj
|:!1!G!3!B B>A|!1!G!3!B B2|!1!AB cd |!5!e!4!d !3!B!2!A |
!1!G!3!B B>A |GB B2 | !2!AB !4!cA | !1!G!2!F !1!G2:||
|:!3!d!5!g g>!4!e|!3!d!2!B B2|!1!AB cd |!5!e!4!d !1!B!2!c |
!3!d!5!g g>!4!e |!3!d!2!B B2 | !2!AB !4!cA | !1!G!2!F !1!G2:||
|:!3!d!5!g !3!g>!4!a|!5!b!3!g !4!g2|!2!(3efg e!1!d |!3!d!1!B !1!B>!2!c |
!3!d!5!g !3!g>!4!a|!5!b!3!g !4!g2|!2!(3efg e!1!d |1!4!g2 g>e:|2 g4 ||


